local/share/icons/dracula-icons-main/16/places/folder-decrypted.svg

<?xml version="1.0" encoding="UTF-8"?>
<svg xmlns="http://www.w3.org/2000/svg" xmlns:xlink="http://www.w3.org/1999/xlink" width="16" height="16" viewBox="0 0 16 16">
<path fill-rule="nonzero" fill="rgb(100%, 100%, 100%)" fill-opacity="1" d="M 8 0 C 5.785156 0 4 1.820312 4 4.0625 L 4 5 L 6 5 L 6 4 C 6 2.890625 6.890625 2 8 2 C 9.109375 2 10 2.890625 10 4 L 10 8 L 3 8 C 2.445312 8 2 8.445312 2 9 L 2 15 C 2 15.554688 2.445312 16 3 16 L 13 16 C 13.554688 16 14 15.554688 14 15 L 14 9 C 14 8.445312 13.554688 8 13 8 L 12 8 L 12 4.0625 C 12 1.820312 10.214844 0 8 0 Z M 8 0 "/>
</svg>

<svg xmlns="http://www.w3.org/2000/svg" width="16" height="16" version="1.1" viewBox="0 0 16 16">
 <defs>
  <style id="current-color-scheme" type="text/css">
   .ColorScheme-Text { color:#FFFFFF; } .ColorScheme-Highlight { color:#5294e2; }
  </style>
 </defs>
<path style="fill:currentColor" class="ColorScheme-Text" d="M8 0C5.784 0 4 1.821 4 4.062V5h2V4c0-1.109.892-2 2-2s2 .891 2 2v4H3c-.554 0-1 .446-1 1v6c0 .554.446 1 1 1h10c.554 0 1-.446 1-1V9c0-.554-.446-1-1-1h-1V4.062C12 1.822 10.216 0 8 0z"/></svg>
